flaticon/arrows/curved-arrow-5.svg

<svg xmlns="http://www.w3.org/2000/svg" width="32" height="32" viewBox="0 0 24 24">
    <path d="M 24 5.554688 C 24 2.859375 21.808594 0.667969 19.109375 0.667969 L 4.890625 0.667969 C 4.644531 0.667969 4.445312 0.867188 4.445312 1.109375 C 4.445312 1.355469 4.644531 1.554688 4.890625 1.554688 L 19.109375 1.554688 C 21.316406 1.554688 23.109375 3.351562 23.109375 5.554688 C 23.109375 7.761719 21.316406 9.554688 19.109375 9.554688 L 4.890625 9.554688 C 2.191406 9.554688 0 11.75 0 14.445312 C 0 17.140625 2.191406 19.332031 4.890625 19.332031 L 18.039062 19.332031 L 14.796875 22.574219 C 14.625 22.75 14.625 23.03125 14.796875 23.203125 C 14.882812 23.289062 14.996094 23.332031 15.109375 23.332031 C 15.226562 23.332031 15.339844 23.289062 15.425781 23.203125 L 19.425781 19.203125 C 19.464844 19.164062 19.5 19.113281 19.519531 19.058594 C 19.566406 18.949219 19.566406 18.828125 19.519531 18.71875 C 19.5 18.664062 19.464844 18.613281 19.425781 18.574219 L 15.425781 14.574219 C 15.25 14.402344 14.96875 14.402344 14.796875 14.574219 C 14.625 14.75 14.625 15.03125 14.796875 15.203125 L 18.039062 18.445312 L 4.890625 18.445312 C 2.683594 18.445312 0.890625 16.648438 0.890625 14.445312 C 0.890625 12.238281 2.683594 10.445312 4.890625 10.445312 L 19.109375 10.445312 C 21.808594 10.445312 24 8.25 24 5.554688 Z M 24 5.554688"/>
    <path d="M18.53125 2.914062C18.441406 2.6875 18.183594 2.578125 17.953125 2.667969 17.632812 2.796875 17.335938 2.976562 17.074219 3.203125 16.886719 3.363281 16.867188 3.644531 17.027344 3.832031 17.117188 3.933594 17.242188 3.984375 17.363281 3.984375 17.46875 3.984375 17.570312 3.949219 17.65625 3.875 17.84375 3.714844 18.054688 3.585938 18.285156 3.492188 18.511719 3.402344 18.625 3.140625 18.53125 2.914062zM18.1875 7.578125C17.960938 7.476562 17.757812 7.335938 17.578125 7.164062 17.402344 6.992188 17.117188 7 16.949219 7.179688 16.78125 7.355469 16.785156 7.636719 16.964844 7.804688 17.214844 8.046875 17.503906 8.242188 17.816406 8.386719 17.878906 8.414062 17.941406 8.425781 18.003906 8.425781 18.171875 8.425781 18.332031 8.328125 18.40625 8.167969 18.507812 7.941406 18.410156 7.679688 18.1875 7.578125zM19.738281 3.421875C19.976562 3.492188 20.199219 3.601562 20.398438 3.746094 20.476562 3.800781 20.566406 3.828125 20.65625 3.828125 20.796875 3.828125 20.933594 3.761719 21.019531 3.640625 21.160156 3.441406 21.117188 3.164062 20.914062 3.023438 20.632812 2.820312 20.320312 2.667969 19.988281 2.570312 19.75 2.5 19.503906 2.636719 19.4375 2.871094 19.367188 3.105469 19.5 3.351562 19.738281 3.421875zM16.578125 4.613281C16.332031 4.566406 16.101562 4.726562 16.054688 4.964844 16.019531 5.160156 16 5.355469 16 5.554688 16 5.703125 16.011719 5.851562 16.03125 5.996094 16.0625 6.21875 16.253906 6.378906 16.46875 6.378906 16.492188 6.378906 16.511719 6.378906 16.535156 6.375 16.777344 6.339844 16.945312 6.113281 16.910156 5.871094 16.894531 5.769531 16.886719 5.664062 16.890625 5.554688 16.890625 5.414062 16.902344 5.273438 16.929688 5.132812 16.976562 4.894531 16.816406 4.660156 16.578125 4.613281zM21.488281 6.847656C21.535156 6.863281 21.585938 6.871094 21.632812 6.871094 21.816406 6.871094 21.988281 6.757812 22.050781 6.574219 22.164062 6.246094 22.222656 5.90625 22.222656 5.554688 22.222656 5.257812 22.179688 4.964844 22.097656 4.679688 22.03125 4.445312 21.78125 4.308594 21.546875 4.378906 21.3125 4.445312 21.175781 4.695312 21.246094 4.929688 21.304688 5.132812 21.332031 5.339844 21.332031 5.554688 21.332031 5.804688 21.292969 6.050781 21.210938 6.28125 21.132812 6.515625 21.253906 6.769531 21.488281 6.847656zM19.308594 8.253906C19.355469 8.457031 19.539062 8.59375 19.738281 8.59375 19.773438 8.59375 19.808594 8.589844 19.84375 8.578125 20.183594 8.496094 20.5 8.363281 20.792969 8.171875 21 8.039062 21.058594 7.765625 20.925781 7.558594 20.792969 7.351562 20.519531 7.292969 20.3125 7.425781 20.105469 7.558594 19.875 7.65625 19.632812 7.714844 19.394531 7.773438 19.25 8.015625 19.308594 8.253906zM1.777344 14.445312C1.777344 16.160156 3.171875 17.554688 4.890625 17.554688 6.605469 17.554688 8 16.160156 8 14.445312 8 12.730469 6.605469 11.332031 4.890625 11.332031 3.171875 11.332031 1.777344 12.730469 1.777344 14.445312zM7.109375 14.445312C7.109375 15.667969 6.113281 16.667969 4.890625 16.667969 3.664062 16.667969 2.667969 15.667969 2.667969 14.445312 2.667969 13.21875 3.664062 12.222656 4.890625 12.222656 6.113281 12.222656 7.109375 13.21875 7.109375 14.445312zM7.109375 14.445312"/>
</svg>

<svg xmlns="http://www.w3.org/2000/svg" width="32" height="32" viewBox="0 0 24 24">
    <path d="M24 5.555A4.892 4.892 0 0 0 19.11.668H4.89a.444.444 0 1 0 0 .887h14.22c2.206 0 4 1.797 4 4 0 2.207-1.794 4-4 4H4.89C2.192 9.555 0 11.75 0 14.445a4.892 4.892 0 0 0 4.89 4.887h13.15l-3.243 3.242a.448.448 0 0 0 0 .63.44.44 0 0 0 .312.128c.118 0 .23-.043.317-.129l4-4c.039-.039.074-.09.094-.144a.428.428 0 0 0 0-.34.402.402 0 0 0-.094-.145l-4-4a.448.448 0 0 0-.63 0 .448.448 0 0 0 0 .63l3.243 3.241H4.891c-2.207 0-4-1.797-4-4 0-2.207 1.793-4 4-4h14.218c2.7 0 4.891-2.195 4.891-4.89zm0 0"/>
    <path d="M18.531 2.914a.445.445 0 0 0-.578-.246 3.12 3.12 0 0 0-.879.535.446.446 0 1 0 .582.672 2.3 2.3 0 0 1 .63-.383.443.443 0 0 0 .245-.578zm0 0M18.188 7.578a2.157 2.157 0 0 1-.61-.414.441.441 0 0 0-.629.016.44.44 0 0 0 .016.625c.25.242.539.437.851.582a.445.445 0 0 0 .59-.219.445.445 0 0 0-.219-.59zm0 0M19.738 3.422c.239.07.461.18.66.324a.449.449 0 0 0 .622-.105.44.44 0 0 0-.106-.618 3.047 3.047 0 0 0-.926-.453.44.44 0 0 0-.55.301c-.07.234.062.48.3.55zm0 0M16.578 4.613a.446.446 0 0 0-.523.352c-.035.195-.055.39-.055.59 0 .148.012.297.031.441a.445.445 0 0 0 .438.383c.023 0 .043 0 .066-.004a.445.445 0 0 0 .375-.504 1.68 1.68 0 0 1-.02-.316c0-.14.012-.282.04-.422a.446.446 0 0 0-.352-.52zm0 0M21.488 6.848a.44.44 0 0 0 .563-.273 3.104 3.104 0 0 0 .047-1.895.443.443 0 0 0-.551-.301.443.443 0 0 0-.3.55c.058.204.085.41.085.626 0 .25-.039.496-.121.726a.445.445 0 0 0 .277.567zm0 0M19.309 8.254c.046.203.23.34.43.34.034 0 .07-.004.105-.016.34-.082.656-.215.949-.406a.443.443 0 0 0 .133-.613.443.443 0 0 0-.613-.133c-.208.133-.438.23-.68.289a.445.445 0 0 0-.324.539zm0 0M1.777 14.445a3.112 3.112 0 0 0 6.223 0 3.116 3.116 0 0 0-3.11-3.113 3.117 3.117 0 0 0-3.113 3.113zm5.332 0a2.226 2.226 0 0 1-2.218 2.223c-1.227 0-2.223-1-2.223-2.223 0-1.226.996-2.222 2.223-2.222 1.222 0 2.218.996 2.218 2.222zm0 0"/>
</svg>
